!!!SOCIAL_FUNCTION:	klokali songs
!!!PDT:	1939
!!!OTL: No_45_"I_Possess_the_Salt_Water".krn
!!!LANG: Non-Tone
!!!LING_GROUP: Wakashan
!!!REG: Pacific Northwest
**kern
*staff1
=1-
*clefF4
*k[b-e-a-d-g-]
*M3/4
2r
8.B-\L
16c\Jk
=2
2.c\
=3||
*M2/4
16e-\LL
16d-\
16c\
16c\JJ
8.c\L
16c\Jk
=4||
*M3/4
8c\L
16c\L
16d-\JJ
4c\
4B-\
=5
4c\
4r
8.c\L
16d-\Jk
=6||
*M2/4
2d-\
=7
8d-\L
16d-\L
16e-\JJ
16d-\
16r
16d-\LL
16e-\JJ
=8
4d-\
4B-\
=9||
*M3/4
4d-\
8r
16r
16d-\
8.d-\L
16d-\Jk
=10||
*M2/4
16d-\LK
8.B-\J
4r
=11||
*M3/4
4d-\
8.d-\L
16d-\Jk
16d-\LL
16B-\JJ
8r
=12||
*M2/4
16c\LK
8B-\
16B-\Jk
16c\LL
16B-\JJ
16r
16d-\
=13
4B-\
8.B-\L
16B-\Jk
=14
4B-\
8r
16r
16B-\
=15
4c\
8.c\L
16B-\Jk
=16
4d-\
8r
8d-\
=17
8.d-\L
16d-\Jk
16d-\LL
16B-\JJ
8r
=18||
*M3/4
4d-\
8.d-\L
16d-\Jk
16d-\LK
8.B-\J
=19||
*M2/4
16c\LL
16B-\JJ
16r
16B-\
16c\LL
16B-\JJ
16r
16A-\
=20
4B-\
8.B-\L
16A-\Jk
=21
4B-\
8r
16r
16B-\
=22
4c\
8.c\L
16B-\Jk
=23
2c\
==
*-
